X: 1
T: the Hesleyside Reel
R: reel
N: Usually in G
Z: 2011 John Chambers <jc:trillian.mit.edu>
S: printed MS from Mike Briggs
M: C|
L: 1/8
K: C
G2 \
| "C"E2GE "G"D2CD | "C"CDEF G2AB | "F"cBcA "C"GECE | "D7"A2D2 "G7"D2CD |
| "C"E2GE "G"D2CD | "Am"CDEF "Em"G2AB | "F"cBcA "C"GEGA | "G7"E2D2 "C"C2 :|
|: "C7"GG \
| "F"AGAB c2BA | "C"GECE G2"C7"GG | "F"AGAB c2BA | "C"GECE "G7"D2CD |
| "C"E2GE "G"D2CD | "Am"CDEF "Em"G2AB | "F"cBcA "C"GcGF | "G7"E2D2 "C"C2 :|
